X: 3391
M: 2/4
L: 1/8
K: G
|:\
vG>vBdg | egd2 | c>dBG | AFG2 |\
dd/e/ cc/d/ | BdA2 | dd/e/ cc/d/ | BdA2 |\


